src/asset/24px/copy.svg

<svg width="24" height="24" viewBox="0 0 24 24" fill="none" xmlns="http://www.w3.org/2000/svg">
<path fill-rule="evenodd" clip-rule="evenodd" d="M10 8.99973C9.44772 8.99973 9 9.44744 9 9.99973V17.9997C9 18.552 9.44772 18.9997 10 18.9997H18C18.5523 18.9997 19 18.552 19 17.9997V9.99973C19 9.44744 18.5523 8.99973 18 8.99973H10ZM7 9.99973C7 8.34287 8.34315 6.99973 10 6.99973H18C19.6569 6.99973 21 8.34287 21 9.99973V17.9997C21 19.6566 19.6569 20.9997 18 20.9997H10C8.34315 20.9997 7 19.6566 7 17.9997V9.99973Z" fill="currentColor"/>
<path fill-rule="evenodd" clip-rule="evenodd" d="M17 3.99973C17 3.44744 16.5523 2.99973 16 2.99973H6C4.34315 2.99973 3 4.34287 3 5.99973V15.9997C3 16.552 3.44771 16.9997 4 16.9997C4.55228 16.9997 5 16.552 5 15.9997V5.99973C5 5.44744 5.44772 4.99973 6 4.99973H16C16.5523 4.99973 17 4.55201 17 3.99973Z" fill="currentColor"/>
</svg>

<svg width="24" height="24" fill="none" xmlns="http://www.w3.org/2000/svg"><path fill-rule="evenodd" clip-rule="evenodd" d="M10 9a1 1 0 00-1 1v8a1 1 0 001 1h8a1 1 0 001-1v-8a1 1 0 00-1-1h-8zm-3 1a3 3 0 013-3h8a3 3 0 013 3v8a3 3 0 01-3 3h-8a3 3 0 01-3-3v-8z" fill="currentColor"/><path fill-rule="evenodd" clip-rule="evenodd" d="M17 4a1 1 0 00-1-1H6a3 3 0 00-3 3v10a1 1 0 102 0V6a1 1 0 011-1h10a1 1 0 001-1z" fill="currentColor"/></svg>
